assets/Water buffalo/Flat/water_buffalo_flat.svg

<svg xmlns="http://www.w3.org/2000/svg" width="32" height="32" fill="none"><path fill="#1C1C1C" d="M13.95 20h2l1.87 6.56c.08.29.08.59 0 .87l-.7 2.39c-.03.11-.13.18-.24.18H15.4c-.16 0-.28-.16-.23-.33l.76-2.59c.02-.05.02-.11 0-.17L13.95 20ZM19.28 30h1.48c.11 0 .21-.07.24-.18l2.47-8.67h-2l-2.43 8.53c-.05.16.07.32.24.32Z"/><path fill="#636363" d="M25.31 10h-3.76c-.62 0-1.2-.27-1.63-.72A3.931 3.931 0 0 0 17 8h-2c-.16 0-.31-.08-.39-.22l-.56-.96A3.629 3.629 0 0 0 10.9 5h-.89c-.78 0-1.55.23-2.2.67l-5.1 3.4c-.44.29-.71.79-.71 1.32C2 11.82 3.13 13 4.56 13H7l.73 4.03.68 3.9a2.544 2.544 0 0 0 2.04 2.06v6.79c0 .14.11.25.25.25h1.5c.14 0 .25-.11.25-.25v-2.75l.87-.44c.69-.35 1.13-1.05 1.13-1.82v-1.74l5.94-.03c.61 0 1.16-.21 1.61-.55 0 1.5 1.02 2.81 2.48 3.17L26 26v3.75c0 .14.11.25.25.25h1.5c.14 0 .25-.11.25-.25v-9.46c.38-.25.71-.55 1-.89V24h1v-9.31C30 12.1 27.9 10 25.31 10Z"/><path fill="#212121" d="M30 27v-4c-1.1 0-2 .9-2 2s.9 2 2 2Z"/><path fill="#9B9B9B" d="M13.78 2h-2.26c-.27 0-.5.2-.52.47-.02.29.21.53.5.53h1.31c.09 0 .16.1.12.18-.43.99-1.51 1.8-2.63 1.82H10c-.55 0-1 .45-1 1s.45 1 1 1h1c2-.09 4-1.78 4-3.78C15 2.54 14.46 2 13.78 2Z"/><path fill="#1C1C1C" d="M10.41 7A2.601 2.601 0 0 0 14 10.59L10.41 7ZM4.5 11c-.28 0-.5-.213-.5-.484v-.532c0-.271.22-.484.5-.484s.5.213.5.484v.532c0 .271-.22.484-.5.484ZM7 9.47c0 .28.22.5.5.5s.5-.22.5-.5v-.64c0-.28-.22-.5-.5-.5s-.5.22-.5.5v.64Z"/></svg>

<svg width="32" height="32" viewBox="0 0 32 32" fill="none" xmlns="http://www.w3.org/2000/svg">
<path d="M13.95 20H15.95L17.82 26.56C17.9 26.85 17.9 27.15 17.82 27.43L17.12 29.82C17.09 29.93 16.99 30 16.88 30H15.4C15.24 30 15.12 29.84 15.17 29.67L15.93 27.08C15.95 27.03 15.95 26.97 15.93 26.91L13.95 20Z" fill="#1C1C1C"/>
<path d="M19.28 30H20.76C20.87 30 20.97 29.93 21 29.82L23.47 21.15H21.47L19.04 29.68C18.99 29.84 19.11 30 19.28 30Z" fill="#1C1C1C"/>
<path d="M25.31 10H21.55C20.93 10 20.35 9.73 19.92 9.28C19.2 8.49 18.16 8 17 8H15C14.84 8 14.69 7.92 14.61 7.78L14.05 6.82C13.4 5.69 12.2 5 10.9 5H10.01C9.23 5 8.46 5.23 7.81 5.67L2.71 9.07C2.27 9.36 2 9.86 2 10.39C2 11.82 3.13 13 4.56 13H7L7.73 17.03L8.41 20.93C8.6 21.99 9.42 22.8 10.45 22.99V29.78C10.45 29.92 10.56 30.03 10.7 30.03H12.2C12.34 30.03 12.45 29.92 12.45 29.78V27.03L13.32 26.59C14.01 26.24 14.45 25.54 14.45 24.77V23.03L20.39 23C21 23 21.55 22.79 22 22.45C22 23.95 23.02 25.26 24.48 25.62L26 26V29.75C26 29.89 26.11 30 26.25 30H27.75C27.89 30 28 29.89 28 29.75V26V21V20.29C28.38 20.04 28.71 19.74 29 19.4V24H30V14.69C30 12.1 27.9 10 25.31 10Z" fill="#636363"/>
<path d="M30 27V23C28.9 23 28 23.9 28 25C28 26.1 28.9 27 30 27Z" fill="#212121"/>
<path d="M13.78 2H11.52C11.25 2 11.02 2.2 11 2.47C10.98 2.76 11.21 3 11.5 3H12.81C12.9 3 12.97 3.1 12.93 3.18C12.5 4.17 11.42 4.98 10.3 5H10C9.45 5 9 5.45 9 6C9 6.55 9.45 7 10 7H10.77C10.83 7 10.9 7 11 7C13 6.91 15 5.22 15 3.22C15 2.54 14.46 2 13.78 2Z" fill="#9B9B9B"/>
<path d="M10.41 7C10.15 7.41 10 7.89 10 8.4C10 9.83 11.16 11 12.6 11C13.12 11 13.6 10.85 14 10.59L10.41 7Z" fill="#1C1C1C"/>
<path d="M4.5 11C4.22 11 4 10.7871 4 10.5161V9.98387C4 9.7129 4.22 9.5 4.5 9.5C4.78 9.5 5 9.7129 5 9.98387V10.5161C5 10.7871 4.78 11 4.5 11Z" fill="#1C1C1C"/>
<path d="M7 9.46999C7 9.74999 7.22 9.96999 7.5 9.96999C7.78 9.96999 8 9.74999 8 9.46999V8.82999C8 8.54999 7.78 8.32999 7.5 8.32999C7.22 8.32999 7 8.54999 7 8.82999V9.46999Z" fill="#1C1C1C"/>
</svg>
